X: 1
P: Pinafore 2
C: from
C: arr. T. Traub 6-14-2005
K: G
L: 1/8
M: 4/4
R: reel
|: D|"G"G2 B2 BAGF |G2 B2 BAGF|GABc "D"B2 A2|"G"G6 AB|"C"c2 c2 B2 BB|"Gdim"^A2 A2 "G"B4| "A"A2 GF E2 A2|"D"D4-D4|
"G"d2 e2 d2 e2|d2 e2 d2 e2|"D"d2 A2 AcBA|"G"B2 G2 G2 > d2|d2 e2 d2 e2|d2 e2 d2 g2|"G"dBed "D"c2 A2|"G"G6 :|

